src/svg/icon-money.svg

<svg width="37" height="40" viewBox="0 0 37 40" fill="none" xmlns="http://www.w3.org/2000/svg">
<g clip-path="url(#clip0_80_29142)">
<path d="M25.9846 8.96484C25.9846 8.31797 25.4602 7.79297 24.8141 7.79297H11.5487C10.9026 7.79297 10.3782 8.31797 10.3782 8.96484C10.3782 9.61172 10.9026 10.1367 11.5487 10.1367H24.8141C25.4602 10.1367 25.9846 9.61172 25.9846 8.96484Z" fill="currentColor"/>
<path d="M14.7902 7.01151H21.5727C22.8025 5.05058 23.6374 2.99823 23.7638 1.59511C23.8926 0.163857 22.641 -0.284581 21.4408 0.170888C20.2407 0.626357 19.135 0.849013 18.1814 0.849013C17.2279 0.849013 16.1222 0.626357 14.922 0.170888C13.7219 -0.284581 12.4703 0.163857 12.599 1.59511C12.7254 2.99823 13.5604 5.05058 14.7902 7.01151Z" fill="currentColor"/>
<path d="M24.0588 15.9906C24.2375 16.0727 24.4255 16.1055 24.6089 16.0945C25.0295 16.0703 25.422 15.8203 25.6085 15.4102C25.8769 14.8211 25.6171 14.1258 25.0287 13.8578C23.4712 13.1477 22.6487 11.9398 22.2164 10.918H17.3855C16.9064 11.8367 16.5755 12.9867 16.6598 14.3664C16.6996 15.0109 17.2513 15.5016 17.8943 15.4648H17.8997C18.545 15.425 19.0359 14.8688 18.9961 14.2227C18.9196 12.9813 19.3714 12.0164 19.8747 11.3406C20.4162 12.8695 21.5781 14.8602 24.0588 15.9906Z" fill="currentColor"/>
<path d="M11.5487 7.01211H13.8749C12.7723 5.16523 12.0037 3.25117 11.8374 1.80664C11.1453 1.8582 10.5944 2.1543 10.2206 2.52852C9.66816 3.08164 8.85195 4.91367 11.0462 7.07852C11.2062 7.03477 11.3747 7.01211 11.5487 7.01211Z" fill="currentColor"/>
<path d="M25.6592 10.7246C25.4033 10.848 25.1169 10.9176 24.8141 10.9176H23.0756C23.5805 11.9371 24.3436 12.6871 25.3518 13.1465C25.8262 13.3621 26.1875 13.7504 26.3701 14.2395C26.5527 14.7285 26.534 15.259 26.3178 15.734C26.0174 16.3949 25.3791 16.8324 24.6534 16.8738C24.6167 16.8762 24.5785 16.877 24.5402 16.877C24.2609 16.877 23.9893 16.8176 23.7334 16.6996C21.8005 15.8184 20.6004 14.4629 19.8568 13.1668C19.7811 13.4918 19.753 13.8277 19.7748 14.173C19.8412 15.248 19.0211 16.177 17.9473 16.2434C17.938 16.2434 17.9278 16.2441 17.9185 16.2449C17.8872 16.2465 17.8568 16.2473 17.8264 16.2473C16.7987 16.2473 15.9443 15.4418 15.881 14.4137C15.8061 13.184 16.0207 12.0105 16.5186 10.9176H11.5487C11.246 10.9176 10.9596 10.848 10.7036 10.7246C5.62688 13.577 0 19.623 0 31.9074C0 39.4652 5.93901 39.9996 18.1814 39.9996C30.4238 39.9996 36.3629 39.466 36.3629 31.9074C36.3629 19.623 30.736 13.577 25.6584 10.7246H25.6592Z" fill="currentColor"/>
<path d="M24.8141 7.01211C24.9881 7.01211 25.1567 7.03477 25.3167 7.07852C27.5109 4.91367 26.6947 3.08164 26.1422 2.52852C25.7685 2.1543 25.2176 1.8582 24.5254 1.80664C24.3592 3.25117 23.5906 5.16523 22.488 7.01211H24.8141Z" fill="currentColor"/>
<path d="M19.1645 32.9428C20.8259 32.9428 21.3866 31.7824 21.4696 29.9972H25C24.8754 33.523 23.1102 36 19.2476 36C15.3227 36 13.5783 33.4561 13.1006 30.0865H12V28.7476H12.976C12.9553 28.5021 12.9553 28.2343 12.9553 27.9888V27.4533H12V26.1144H13.0591C13.4952 22.6332 15.2396 20 19.2476 20C23.0895 20 24.8546 22.477 25 25.9582H21.4696C21.3658 24.2176 20.8051 23.0572 19.1645 23.0572C17.5655 23.0572 16.8387 24.2176 16.5895 26.1144H19.8914V27.4533H16.4856V27.9888C16.4856 28.2566 16.4856 28.5021 16.5064 28.7476H19.8914V30.0865H16.6102C16.901 31.8717 17.6278 32.9428 19.1645 32.9428Z" fill="white"/>
</g>
<defs>
<clipPath id="clip0_80_29142">
<rect width="36.3636" height="40" fill="white"/>
</clipPath>
</defs>
</svg>

<svg xmlns="http://www.w3.org/2000/svg" width="37" height="40" fill="none" viewBox="0 0 37 40"><g clip-path="url(#a)"><path fill="currentColor" d="M25.985 8.965c0-.647-.525-1.172-1.17-1.172H11.548a1.172 1.172 0 0 0 0 2.344h13.265c.646 0 1.17-.525 1.17-1.172M14.79 7.012h6.783c1.23-1.961 2.064-4.014 2.19-5.417.13-1.431-1.122-1.88-2.322-1.424s-2.306.678-3.26.678-2.059-.223-3.259-.678-2.452-.007-2.323 1.424c.126 1.403.961 3.456 2.191 5.417m9.269 8.978a1.17 1.17 0 0 0 1.55-.58 1.17 1.17 0 0 0-.58-1.552c-1.558-.71-2.38-1.918-2.813-2.94h-4.83a6.5 6.5 0 0 0-.726 3.448 1.17 1.17 0 0 0 1.234 1.099h.006a1.17 1.17 0 0 0 1.096-1.242c-.076-1.242.375-2.207.879-2.882.541 1.529 1.703 3.52 4.184 4.65m-12.51-8.979h2.326c-1.103-1.847-1.871-3.76-2.038-5.205a2.53 2.53 0 0 0-1.616.722c-.553.553-1.369 2.385.825 4.55q.241-.066.503-.067"/><path fill="currentColor" d="M25.66 10.725a1.94 1.94 0 0 1-.846.193h-1.738c.505 1.02 1.268 1.77 2.276 2.229.474.215.835.603 1.018 1.092s.164 1.02-.052 1.495a1.946 1.946 0 0 1-2.585.966 8.43 8.43 0 0 1-3.876-3.533q-.114.487-.082 1.006a1.955 1.955 0 0 1-1.949 2.074 1.954 1.954 0 0 1-1.945-1.833 7.3 7.3 0 0 1 .638-3.496h-4.97c-.303 0-.59-.07-.845-.193C5.627 13.577 0 19.623 0 31.907 0 39.465 5.939 40 18.181 40s18.182-.534 18.182-8.093c0-12.284-5.627-18.33-10.705-21.182zm-.846-3.713q.262 0 .503.067c2.194-2.165 1.378-3.997.825-4.55a2.53 2.53 0 0 0-1.617-.722c-.166 1.444-.934 3.358-2.037 5.205z"/><path fill="#fff" d="M19.165 32.943c1.66 0 2.222-1.16 2.305-2.946H25C24.875 33.523 23.11 36 19.248 36c-3.925 0-5.67-2.544-6.147-5.913H12v-1.34h.976c-.02-.245-.02-.513-.02-.758v-.536H12v-1.339h1.06c.435-3.48 2.18-6.114 6.188-6.114 3.842 0 5.607 2.477 5.752 5.958h-3.53c-.104-1.74-.665-2.9-2.305-2.9-1.6 0-2.326 1.16-2.575 3.056h3.301v1.34h-3.405v.535c0 .268 0 .513.02.759h3.385v1.338h-3.28c.29 1.786 1.017 2.857 2.553 2.857"/></g><defs><clipPath id="a"><path fill="#fff" d="M0 0h36.364v40H0z"/></clipPath></defs></svg>
